X:80
T: Tegnap a Gyimesbe jártam...
M: 4/4
L: 1/4
K: F
Ggag | f2 c2 | 
f/g/a/b/ a<g | d2 d2 | 
g g/d/ f c | B2 F2 | 
B/c/d/_e/ f<c | G2 G2 | 

